!!!OTL: 774. Gottes Rath und Scheiden.
!!!COM: F. Mendelssohn
!!!ODT: 1839
!!!ARE: Europa, Mitteleuropa, Deutschland
!!!SCT: B0774A
!!!TXL: @@DE
!!!YEM: Copyright 1995, estate of Helmut Schaffrath.
**kern	**text
*ICvox	*
*Ivox	*
*clefG2	*
*M4/4	*
*met(c)	*
*k[f#c#]	*
*D:	*
!LO:TX:a:t=Etwas angehalten.	!
{4a	4._Nun
=1	=1
4.g	mußt
8f#	du
4f#	mich
4dd	auch
=2	=2
4.cc#	recht
8b	verſtehn,
4b;}	.
{4b	nun
=3	=3
4e	mußt
4f#	du
4g	mich
4b	auch
=4	=4
4.a	recht
8g	ver-
4f#}	-ſtehn,
{4f#	wenn
=5	=5
4.dd	Men-
8cc#	-ſchen
4b	aus-
4a	-ein-
=6	=6
4.a	-an-
8g#	-der-
4g#}	-gehn,
{4b	ſo
=7	=7
4.ee	ſa-
8dd	-gen
4cc#	ſie:
8r	.
8b	"Auf
=8	=8
4.b;	Wie-
8a	-der-
4a;}	-ſehn!
{4a	auf
=9	=9
4.e	Wie-
8g	-der-
4f#	ſehn,
4a	auf
=10	=10
4.e	Wie-
8g	-der-
4f#}	-ſehn,
{4a	auf
=11	=11
2.e	Wie-
4g	-der-
=12	=12
1f#;}	-ſehn!"
==	==
!!!AGN: Abschieds - Lied, religioes
!!!ONB: ESAC (Essen Associative Code) Database: BOEHME
!!!AMT: simple quadruple
!!!AIN: vox
!!!EED: Helmut Schaffrath
!!!EEV: 1.0
!!!GTL: Religioese Lieder
!!!Text: E. F. von Feuchtersleben
!!!URL-scan: https://archive.org/details/BoehmeVtLieder1895/page/n617/mode/2up
!!!ENC: Anna Maria Matuszewska
!!!EEV: 2024/19/07
*-	*-
